X:45
T: Flax in Bloom, The
S:Roger Landes, Ir-Trad, 9/97
N:2nd & 3rd parts only
M:4/4
K:D Ionian
P:2
fAdf eAce|dCdA BAFA|DFAd FAdf|g/2f/2e fd edBd|fdAd eAce|dCdA BAFA|DFAd
FAdf|afeg fd d/2d/2d:|
P:3
f/2f/2f af dfaf|g/2g/2g fg eB B/2B/2B|fd d/2d/2d Adfd|ceae ceae|f/2f/2f
af dfaf|g/2g/2g fg eB Bb/2b/2b|AF F/2F/2F ABdf|afeg fd d/2d/2d:|
